X:309
T: MAMA PAPA ACH SEHN SIE DOCH DEN KNABEN
N: B0366
O: Europa, Mitteleuropa, Deutschland, Westfalen
R: Scherz - Lied, Liebe
M: 2/4
L: 1/8
K: C
G, | C2C,2 | C,2z
C | CB,A,G, | G,2E,
G, | G,F,F,F, | F,E,E,
G, | A,G,F,E, | G,2D,
D, | G,2G,A, | B,A,B,
C | D3E | D2z
D | DCCC | CB,D
B, | B,A,CA, | G,2z

@@@ Tune index: 2112
